X:1
T:Partition sans titre
C:Compositeur / Arrangeur
L:1/8
M:4/4
I:linebreak $
K:D
V:1 treble nm="Violon" snm="Vln."
V:1
"A" egag efed | cdef g2 Pf2 | egag efed |1 Pc2 PB2 A3 e :|2 Pc2 PB2 A3 A |:"A" AAcA"G" B2 AG | %6
"D" FGAd"G" BGGA | BdcA PB2 AG |1"D" FGAB A2 A2 :|2"D" FGAB A3 e |] %10
